X:1
T: Jim's Lady
C:
R:Strathspey
Q: 128
K:D
M:4/4
L:1/16
|:a4|fA3 A3A Bg3 g3B|ca3 a3g f3e d3c|d3c Bd3 A3G FD3|G3F EB3 C4 D3E|
FA,3 A,3A, B,G3 G3B,|CA3 A3C D3E F3G|((3A2B2c2) ((3d2c2B2) ((3A2B2c2) ((3d2e2f2)|eA3 B3c d4 fa3|
b4 a3g fd3 d3c|d3D FA3 B4 B2c2|d4 c3d AF3 F2A2|G3F ED3 A4 fa3|
b4 a3g fd3 d3c|d3D FA3 B4 A3G|((3F2G2A2) ((3B2A2G2) ((3A2B2c2) ((3d2e2f2) |eA3 B3c d4:|
